X: 189
T: 190. Herr, nun la\ss in Friede
N: Derived from chor190.krn
C: Johann Sebastian Bach
%%abc-version 2.0
%%abcx-abcm2ps-target-version 5.9.1 (29 Sep 2008)
%%abc-creator hum2abc beta
%%abcx-conversion-date 2019/03/11 17:28:18
%%abc-edited-by Craig Stuart Sapp
%%humdrum-veritas 243377042
%%humdrum-veritas-data 1364888985
%%
%%barnumbers 0
L: 1/8
M: C
%%staves [1 2 3 4]
V: 1 clef=treble
V: 2 clef=treble
V: 3 clef=treble-8
V: 4 clef=bass
K: C
[V:1] E2E2^F2^G2 | 
[V:2] B,2C2D2D2 | 
[V:3] G2A^GA2B2 | 
[V:4] E,D,C,2-C,D,C,B,, | 
[V:1] A4!fermata!^G4 | 
[V:2] E2D2!fermata!E4 | 
[V:3] c2BA!fermata!B4 | 
[V:4] A,,G,,F,,2!fermata!E,,4 | 
[V:1] ^G2G2A2B2 | 
[V:2] E2E2E^F^G2 | 
[V:3] B2B2c2d2 | 
[V:4] D,F,E,D, C,D,C,B,, | 
[V:1] c4!fermata!B4 | 
[V:2] A4A2!fermata!^G2 | 
[V:3] e4!fermata!e4 | 
[V:4] A,,B,, C,D,!fermata!E,4 | 
[V:1] c2c2B2B2 | 
[V:2] =G^FGAG2=F2 | 
[V:3] e3dd2d2- | 
[V:4] E,D,E,^F, G,F,G,^G, | 
[V:1] A4!fermata!^G4 | 
[V:2] E2^F2!fermata!E4 | 
[V:3] dc- cB!fermata!B4 | 
[V:4] A,2^D,2!fermata!E,4 | 
[V:1] A2A2=G2G2 | 
[V:2] C2=FE DCDE | 
[V:3] AGF2G2DA | 
[V:4] F,E,=D,C, B,,A,,B,,^C, | 
[V:1] F4!fermata!E4 | 
[V:2] D4!fermata!C4 | 
[V:3] A2G2!fermata!G4 | 
[V:4] D,=C,B,,G,,!fermata!C,4 | 
[V:1] e2e2d2d2 | 
[V:2] G2G2G2GF | 
[V:3] c2c2-c2B2- | 
[V:4] C,D,E,F, G,A,B,G, | 
[V:1] c4!fermata!B4 | 
[V:2] E4!fermata!E4 | 
[V:3] B2A2-A2!fermata!^G2 | 
[V:4] A,,B,,C,D,!fermata!E,4 | 
[V:1] A2A2G2G2 | 
[V:2] C2F2F2E2- | 
[V:3] ABc2c2c_B | 
[V:4] F,,=G,,A,,B,, C,D,E,C, | 
[V:1] F4!fermata!E4 |]  
[V:2] E2DC!fermata!B,4 |]  
[V:3] Ac=BA!fermata!^G4 |]  
[V:4] D,4!fermata!E,4 |]  



